!!!COA: des Prez, Josquin
!!!CDT: ~1450-1521/08/27
!!!OTL: Ite in mundum
!!!AGN: Motet
!!!SCT: NJE 19.11
!!!SCA: New Josquin Edition 19.11
!!!voices: 3
**kern	**kern	**kern
*part3	*part2	*part1
*staff3	*staff2	*staff1
*Ivox	*Ivox	*Ivox
*I"Contra	*I"Tenor	*I"Superius
*I'C	*I'T	*I'S
*clefF4	*clefGv2	*clefG2
*k[]	*k[]	*k[]
*M2/1	*M2/1	*M2/1
*met(C|)	*met(C|)	*met(C|)
=	=	=
1r	0r	0r
1C	.	.
=3	=3	=3
2C	0r	0r
2C	.	.
4C	.	.
4D	.	.
4E	.	.
4F	.	.
=4	=4	=4
2.G	0r	0r
4F	.	.
2E	.	.
2D	.	.
=5	=5	=5
1G	0r	0r
1A	.	.
=6	=6	=6
1G	1r	1g
2.C	1G	2g
.	.	2g
4D	.	.
=7	=7	=7
4E	2G	4g
4F	.	4a
2G	2G	4b
.	.	4cc
2.G	4G	2.dd
.	4A	.
.	4B	.
4A	4c	4cc
=8	=8	=8
!	!	!LO:TX:Z=8:t=music breaks off after this note
4B	2.d	2b
4c	.	.
1d	.	1.r
.	4c	.
!	!LO:TX:Z=8:t=music breaks off after this note	!
.	2B	.
2c	2r	.
=9	=9	=9
1B-X	0ryy	0ryy
1A	.	.
=10	=10	=10
1D	0ryy	0ryy
1r	.	.
=11	=11	=11
1r	0ryy	0ryy
2r	.	.
2D	.	.
=12	=12	=12
2.F	0ryy	0ryy
4E	.	.
2D	.	.
2C	.	.
=13	=13	=13
1D	0ryy	0ryy
1E	.	.
=14	=14	=14
0D	0ryy	0ryy
=15	=15	=15
2r	0ryy	0ryy
2A	.	.
2B-X	.	.
2A	.	.
=16	=16	=16
1B-Xi	0ryy	0ryy
1A	.	.
=17	=17	=17
1D	0ryy	0ryy
2r	.	.
2G	.	.
=18	=18	=18
2G	0ryy	0ryy
2G	.	.
2.G	.	.
4A	.	.
=19	=19	=19
4B	0ryy	0ryy
4c	.	.
2.d	.	.
4c	.	.
4B	.	.
4A	.	.
=20	=20	=20
2G	0ryy	0ryy
1d	.	.
2c	.	.
=21	=21	=21
1B-X	0ryy	0ryy
1A	.	.
=22	=22	=22
1D	0ryy	0ryy
1r	.	.
=23	=23	=23
1r	0ryy	0ryy
2r	.	.
2D	.	.
=24	=24	=24
2.F	0ryy	0ryy
4E	.	.
2D	.	.
2C	.	.
=25	=25	=25
1D	0ryy	0ryy
1E	.	.
=26	=26	=26
0D	0ryy	0ryy
=27	=27	=27
2r	0ryy	0ryy
2A	.	.
2B-X	.	.
2A	.	.
=28	=28	=28
1B-Xi	0ryy	0ryy
1A	.	.
=29	=29	=29
1D	0ryy	0ryy
1G	.	.
=30	=30	=30
1.d	0ryy	0ryy
2c	.	.
=31	=31	=31
2B	0ryy	0ryy
2A	.	.
2G	.	.
2F	.	.
=32	=32	=32
2E	0ryy	0ryy
2C	.	.
1D	.	.
=33	=33	=33
0G	0ryy	0ryy
=34	=34	=34
0r	0ryy	0ryy
=35	=35	=35
0r	0ryy	0ryy
=36	=36	=36
2r	0ryy	0ryy
2G	.	.
2A	.	.
2F	.	.
=37	=37	=37
2.G	0ryy	0ryy
4F	.	.
2E	.	.
2D	.	.
=38	=38	=38
1E	0ryy	0ryy
2D	.	.
2G	.	.
=39	=39	=39
2C	0ryy	0ryy
2C	.	.
2.G	.	.
4A	.	.
=40	=40	=40
2B	0ryy	0ryy
2G	.	.
1A	.	.
=41	=41	=41
0G	0ryy	0ryy
=42	=42	=42
2r	0ryy	0ryy
2D	.	.
2E	.	.
2F	.	.
=43	=43	=43
2.G	0ryy	0ryy
4F	.	.
2E	.	.
2D	.	.
=44	=44	=44
2C	0ryy	0ryy
2D	.	.
2F	.	.
2G	.	.
=45	=45	=45
1E	0ryy	0ryy
1D	.	.
=46	=46	=46
0r	0ryy	0ryy
=47	=47	=47
0r	0ryy	0ryy
=48	=48	=48
0r	0ryy	0ryy
=49	=49	=49
1r	0ryy	0ryy
2r	.	.
2G	.	.
=50	=50	=50
2A	0ryy	0ryy
2B	.	.
2.c	.	.
4B	.	.
=51	=51	=51
2A	0ryy	0ryy
2G	.	.
2F	.	.
2E	.	.
=52	=52	=52
2D	0ryy	0ryy
2G	.	.
2F	.	.
2D	.	.
=53	=53	=53
2F	0ryy	0ryy
2.G	.	.
4F	.	.
2G	.	.
=54	=54	=54
2D	0ryy	0ryy
2E	.	.
1D	.	.
=55	=55	=55
1E	0ryy	0ryy
1C	.	.
=56	=56	=56
1r	0ryy	0ryy
1C	.	.
=57	=57	=57
2C	0ryy	0ryy
2C	.	.
4C	.	.
4D	.	.
4E	.	.
4F	.	.
=58	=58	=58
2.G	0ryy	0ryy
4F	.	.
2E	.	.
2D	.	.
=59	=59	=59
1G	0ryy	0ryy
1A	.	.
=60	=60	=60
1G	0ryy	0ryy
2.C	.	.
4D	.	.
=61	=61	=61
4E	0ryy	0ryy
4F	.	.
2G	.	.
2.G	.	.
4A	.	.
=62	=62	=62
4B	0ryy	0ryy
4c	.	.
1d	.	.
2c	.	.
=63	=63	=63
1B-X	0ryy	0ryy
1A	.	.
=64	=64	=64
1D	0ryy	0ryy
1r	.	.
=65	=65	=65
1r	0ryy	0ryy
2r	.	.
2D	.	.
=66	=66	=66
2.F	0ryy	0ryy
4E	.	.
2D	.	.
2C	.	.
=67	=67	=67
1D	0ryy	0ryy
1E	.	.
=68	=68	=68
0D	0ryy	0ryy
=69	=69	=69
2r	0ryy	0ryy
2A	.	.
2B-X	.	.
2A	.	.
=70	=70	=70
1B-Xi	0ryy	0ryy
1A	.	.
=71	=71	=71
0D	0ryy	0ryy
=72	=72	=72
1G	0ryy	0ryy
[1d	.	.
=73	=73	=73
2d]	0ryy	0ryy
2c	.	.
2B	.	.
2A	.	.
=74	=74	=74
2G	0ryy	0ryy
2F	.	.
2E	.	.
2C	.	.
=75	=75	=75
2D	0ryy	0ryy
2G	.	.
2F	.	.
2D	.	.
=76	=76	=76
2F	0ryy	0ryy
1G	.	.
2G	.	.
=77	=77	=77
1D	0ryy	0ryy
1G	.	.
=78	=78	=78
1.d	0ryy	0ryy
2c	.	.
=79	=79	=79
2B	0ryy	0ryy
2A	.	.
2G	.	.
2F	.	.
=80	=80	=80
2E	0ryy	0ryy
2C	.	.
2D	.	.
2G	.	.
=81	=81	=81
2F	0ryy	0ryy
2D	.	.
2F	.	.
[2G	.	.
=82	=82	=82
4G]	0ryy	0ryy
4F	.	.
2G	.	.
1D	.	.
=83	=83	=83
1E	0ryy	0ryy
2r	.	.
2E	.	.
=84	=84	=84
2C	0ryy	0ryy
2BB	.	.
2C	.	.
2D	.	.
=85	=85	=85
2.E	0ryy	0ryy
4D	.	.
2C	.	.
2BB	.	.
=86	=86	=86
2C	0ryy	0ryy
2G	.	.
1C	.	.
=87	=87	=87
0Gl	0ryy	0ryy
==	==	==
*-	*-	*-
!!!RDF**kern: l=long note in original notation
!!!system-decoration: s1,s2,s3
!!!RDF**kern: i = editorial accidental
!!!ENC: Jesse Rodin
!!!END: 2020/10/22
!!!EED: Jesse Rodin
!!!EEV: 2021/03/25
!!attribution-level@Jos: 4a (the rest [double question mark])
!!!ONB: Translated from MusicXML and edited on 2021/03/25 by Craig Sapp
!!muse2ps: C^@{COA}??\n@{SCT}^u^Berlin 7; incipit from 1931 transcription by Eckhard Loge^i2I150v85,85,110c110
